X: 453
T: Last Rose Of Summer
S: Viola Ruth "Pioneer Western Folk Tunes" 1948 p.45 #3
R: waltz
Z: 2019 John Chambers <jc:trillian.mit.edu>
M: 3/4
L: 1/8
K: D
(de) |\
(f2(d'3)c') | (b4a2) | ({b}a2f4-) | f4 (de) |\
(f2a3f) | (e4Md2) | d6- | d4 (de) |\
(f2d'3c') | (b4a2) |
(a2f4-) | f4 (de) |\
(f2a3f) | (e4d2) | d6- | d4 ||\
(af) |\
(d'4c'2) | (b4a2) | ({b}a2f4-) | f4 (af) |\
(d'4c'2) |
(b4a2) | (b4(c'2) | d'6-) | d'2(Md2Me2) |\
(f2d'3c') | (b4a2) | ({b}a2(f4-) | f4 (de) |\
(f2a3f) | (e4Md2) | (d6- | d4 |]
